X:42
T:Scan Waltz
C:Andy De Jarlis
M:3/4
L:1/8
Z:abc by Bruce Osborne - bosborne@kos.net
K:G
ef|gd BG DB,|G,B, DE DB,|C2 EC EG|c3 B AG|!
F2 D2 z F|d2 e2 d2|B2 BA Bc|B4 ef|!
gd BG DB,|G,B, DE DB,|C2 EC EG|c3 B AG|!
F2 D2 z F|A2 B2 A2|G2 z G G2|G4:|!
|:D2|G3 A Bc|d2 B2 G2|c2 cB cd|e4 e2|!
d2 fg af|d2 fg af|g2 ga (3gfe|d4 D2|!
G3 A Bc|d2 B2 G2|c2 cB cd|e4 e2|!
d2 fg af|d2 fg af|g2 gf ga|g4:|!
